client/src/assets/images/global/im-with-her.svg

<svg width="24px" height="24px" viewBox="0 0 24 24" version="1.1" xmlns="http://www.w3.org/2000/svg" xmlns:xlink="http://www.w3.org/1999/xlink">
    <g stroke="none" stroke-width="1" fill="none" fill-rule="evenodd">
        <g transform="translate(-708.000000, -467.000000)">
            <g id="176" transform="translate(708.000000, 467.000000)">
                <path d="M8,9 L8,3.99339768 C8,3.44494629 7.55641359,3 7.00922203,3 L2.99077797,3 C2.45097518,3 2,3.44475929 2,3.99339768 L2,20.0066023 C2,20.5550537 2.44358641,21 2.99077797,21 L7.00922203,21 C7.54902482,21 8,20.5552407 8,20.0066023 L8,15 L14,15 L14,20.0066023 C14,20.5550537 14.4435864,21 14.990778,21 L19.009222,21 C19.5490248,21 20,20.5564587 20,20.0093228 L20,15.0006104 L23,12 L20,8.99267578 L20,4.00303919 C20,3.45042467 19.5564136,3 19.009222,3 L14.990778,3 C14.4509752,3 14,3.44475929 14,3.99339768 L14,9 L8,9 Z" id="Combined-Shape" fill="#000000" opacity="0.5"></path>
                <path d="M2,9 L14,9 L14,3.99077797 C14,3.44358641 14.3203148,3.32031476 14.7062149,3.7062149 L23,12 L14.7062149,20.2937851 C14.3161832,20.6838168 14,20.5490248 14,20.009222 L14,15 L2,15 L2,9 Z" id="Rectangle-121" fill-opacity="0.5" fill="#000000"></path>
            </g>
        </g>
    </g>
</svg>

<svg xmlns="http://www.w3.org/2000/svg" viewBox="0 0 24 24">
  <defs/>
  <g fill="#000" fill-rule="evenodd">
    <path d="M8 9V4c0-.6-.4-1-1-1H3a1 1 0 00-1 1v16c0 .6.4 1 1 1h4c.5 0 1-.4 1-1v-5h6v5c0 .6.4 1 1 1h4c.5 0 1-.4 1-1v-5l3-3-3-3V4c0-.5-.4-1-1-1h-4a1 1 0 00-1 1v5H8z" opacity=".5"/>
    <path fill-opacity=".5" d="M2 9h12V4c0-.6.3-.7.7-.3L23 12l-8.3 8.3c-.4.4-.7.2-.7-.3v-5H2V9z"/>
  </g>
</svg>
